resources/icons/16px/eye-on.svg

<svg xmlns="http://www.w3.org/2000/svg" viewBox="0 0 16 16">
  <path d="M10.29 6.7c.18.18.43.29.71.29s.53-.11.71-.29l4-4c.17-.18.29-.43.29-.7a1.003 1.003 0 0 0-1.71-.71L11 4.58 9.71 3.29A1 1 0 0 0 9 3c-.55 0-1 .44-1 1a1 1 0 0 0 .3.7zM16 7.96v-.07a.64.64 0 0 0-.17-.36c-.3-.4-.65-.76-1-1.12l-1.7 1.7c-.55.55-1.3.88-2.13.88-.06 0-.11-.01-.17-.02C10.42 10.15 9.32 11 8.01 11A3.005 3.005 0 0 1 6.4 5.46c-.24-.43-.39-.93-.39-1.46 0-.26.04-.5.1-.74-.7.2-1.37.5-2.01.86-1.26.7-2.4 1.68-3.4 2.77-.18.21-.36.41-.53.63-.22.29-.22.64 0 .93.51.67 1.12 1.27 1.73 1.81 1.33 1.17 2.85 2.15 4.53 2.55.97.23 1.95.24 2.92.05.89-.18 1.74-.54 2.54-.99 1.25-.71 2.4-1.69 3.39-2.78.18-.2.37-.41.54-.63.09-.1.15-.23.17-.37v-.1c.01-.01.01-.02.01-.03M8.01 9c.48 0 .87-.35.96-.81a.6.6 0 0 1-.07-.09l-.02.01L7.8 7.03c-.45.1-.79.48-.79.96 0 .56.45 1.01 1 1.01"/>
</svg>

<?xml version="1.0" encoding="utf-8"?>
<!-- Generator: Adobe Illustrator 18.0.0, SVG Export Plug-In . SVG Version: 6.00 Build 0)  -->
<svg version="1.1" id="Layer_1" xmlns="http://www.w3.org/2000/svg" xmlns:xlink="http://www.w3.org/1999/xlink" x="0px" y="0px"
	 viewBox="0 0 16 16" enable-background="new 0 0 16 16" xml:space="preserve">
<g id="eye_on_1_">
	<g>
		<path fill-rule="evenodd" clip-rule="evenodd" d="M10.29,6.7c0.18,0.18,0.43,0.29,0.71,0.29s0.53-0.11,0.71-0.29l4-4
			C15.88,2.52,16,2.27,16,2c0-0.55-0.45-1-1-1c-0.28,0-0.53,0.11-0.71,0.29L11,4.58L9.71,3.29C9.53,3.11,9.28,3,9,3
			C8.45,3,8,3.44,8,4C8,4.27,8.12,4.52,8.3,4.7L10.29,6.7z M16,7.96c0-0.01,0-0.01,0-0.02c0,0,0-0.01,0-0.01c0-0.01,0-0.01,0-0.02
			c0-0.01,0-0.01,0-0.02c0,0,0,0,0,0c-0.02-0.14-0.08-0.27-0.17-0.36c-0.3-0.4-0.65-0.76-1-1.12l-1.7,1.7
			C12.58,8.66,11.83,8.99,11,8.99c-0.06,0-0.11-0.01-0.17-0.02c-0.41,1.18-1.51,2.03-2.82,2.03c-1.66,0-3-1.35-3-3.01
			c0-1.07,0.56-2,1.39-2.53C6.16,5.03,6.01,4.53,6.01,4c0-0.26,0.04-0.5,0.1-0.74c-0.7,0.2-1.37,0.5-2.01,0.86
			C2.84,4.82,1.7,5.8,0.7,6.89C0.52,7.1,0.34,7.3,0.17,7.52c-0.22,0.29-0.22,0.64,0,0.93c0.51,0.67,1.12,1.27,1.73,1.81
			c1.33,1.17,2.85,2.15,4.53,2.55c0.97,0.23,1.95,0.24,2.92,0.05c0.89-0.18,1.74-0.54,2.54-0.99c1.25-0.71,2.4-1.69,3.39-2.78
			c0.18-0.2,0.37-0.41,0.54-0.63c0.09-0.1,0.15-0.23,0.17-0.37c0,0,0,0,0,0c0-0.01,0-0.01,0-0.02c0-0.01,0-0.01,0-0.02
			c0,0,0-0.01,0-0.01c0-0.01,0-0.01,0-0.02c0-0.01,0-0.02,0-0.03C16,7.98,16,7.97,16,7.96z M8.01,9c0.48,0,0.87-0.35,0.96-0.81
			C8.94,8.16,8.92,8.13,8.9,8.1L8.88,8.11L7.8,7.03c-0.45,0.1-0.79,0.48-0.79,0.96C7.01,8.55,7.46,9,8.01,9z"/>
	</g>
</g>
</svg>
